src/icons/svg/home.svg

<?xml version="1.0" standalone="no"?><!DOCTYPE svg PUBLIC "-//W3C//DTD SVG 1.1//EN" "http://www.w3.org/Graphics/SVG/1.1/DTD/svg11.dtd"><svg class="icon" width="200px" height="200.00px" viewBox="0 0 1024 1024" version="1.1" xmlns="http://www.w3.org/2000/svg"><path d="M1024 590.432 512 193.024 0 590.432 0 428.416 512 30.976 1024 428.416ZM896 576 896 960 640 960 640 704 384 704 384 960 128 960 128 576 512 288Z" /></svg>

<?xml version="1.0" standalone="no"?><!DOCTYPE svg PUBLIC "-//W3C//DTD SVG 1.1//EN" "http://www.w3.org/Graphics/SVG/1.1/DTD/svg11.dtd"><svg class="icon" width="200px" height="200.00px" viewBox="0 0 1024 1024" version="1.1" xmlns="http://www.w3.org/2000/svg"><path d="M1024 590.432l-512-397.44-512 397.44 0-162.048 512-397.44 512 397.44zM896 576l0 384-256 0 0-256-256 0 0 256-256 0 0-384 384-288z" fill="#ffffff" /></svg>
